src/assets/outline/Litecoin.svg

<svg width="24" height="24" viewBox="0 0 24 24"  xmlns="http://www.w3.org/2000/svg">
<path d="M15.6702 17.8894H7.97017C7.73017 17.8894 7.51016 17.7794 7.37016 17.5894C7.23016 17.3994 7.18016 17.1594 7.25016 16.9294L10.3302 6.14938C10.4202 5.82938 10.7202 5.60938 11.0502 5.60938H14.0902C14.3202 5.60938 14.5402 5.71938 14.6902 5.89938C14.8302 6.08938 14.8802 6.32938 14.8202 6.54938L12.9502 13.5494H16.2002C16.4202 13.5494 16.6302 13.6494 16.7802 13.8194C16.9202 13.9894 16.9802 14.2194 16.9402 14.4294L16.4302 17.2694C16.3402 17.6294 16.0302 17.8894 15.6702 17.8894ZM8.96016 16.3894H15.0402L15.2802 15.0494H11.9602C11.7302 15.0494 11.5101 14.9394 11.3601 14.7594C11.2201 14.5694 11.1702 14.3294 11.2302 14.1094L13.1002 7.10938H11.6002L8.96016 16.3894Z" />
<path d="M7.32014 13.2708C6.97014 13.2708 6.66013 13.0208 6.59013 12.6708C6.51013 12.2608 6.77012 11.8708 7.18012 11.7908L14.8801 10.2508C15.2801 10.1708 15.6801 10.4308 15.7601 10.8408C15.8401 11.2508 15.5801 11.6408 15.1701 11.7208L7.47013 13.2608C7.42013 13.2708 7.37014 13.2708 7.32014 13.2708Z" />
<path d="M12 22.75C6.07 22.75 1.25 17.93 1.25 12C1.25 6.07 6.07 1.25 12 1.25C17.93 1.25 22.75 6.07 22.75 12C22.75 17.93 17.93 22.75 12 22.75ZM12 2.75C6.9 2.75 2.75 6.9 2.75 12C2.75 17.1 6.9 21.25 12 21.25C17.1 21.25 21.25 17.1 21.25 12C21.25 6.9 17.1 2.75 12 2.75Z" />
</svg>

<?xml version="1.0" encoding="UTF-8"?>
<svg width="24" height="24" viewBox="0 0 24 24" xmlns="http://www.w3.org/2000/svg">
 <path d="m15.67 17.889h-7.7c-0.24 0-0.46001-0.11-0.60001-0.3s-0.19-0.43-0.12-0.66l3.08-10.78c0.09-0.32 0.39-0.54 0.72-0.54h3.04c0.23 0 0.45 0.11 0.6 0.29 0.14 0.19 0.19 0.43 0.13 0.65l-1.87 7h3.25c0.22 0 0.43 0.1 0.58 0.27 0.14 0.17 0.2 0.4 0.16 0.61l-0.51 2.84c-0.09 0.36-0.4 0.62-0.76 0.62zm-6.71-1.5h6.08l0.24-1.34h-3.32c-0.23 0-0.4501-0.11-0.6001-0.29-0.14-0.19-0.1899-0.43-0.1299-0.65l1.87-7h-1.5l-2.64 9.28z"/>
 <path d="m7.3201 13.271c-0.35 0-0.66001-0.25-0.73001-0.6-0.08-0.41 0.17999-0.8 0.58999-0.88l7.7-1.54c0.4-0.08 0.8 0.18 0.88 0.59s-0.18 0.8-0.59 0.88l-7.7 1.54c-0.05 0.01-0.09999 0.01-0.14999 0.01z"/>
 <path d="m12 22.75c-5.93 0-10.75-4.82-10.75-10.75s4.82-10.75 10.75-10.75 10.75 4.82 10.75 10.75-4.82 10.75-10.75 10.75zm0-20c-5.1 0-9.25 4.15-9.25 9.25s4.15 9.25 9.25 9.25 9.25-4.15 9.25-9.25-4.15-9.25-9.25-9.25z"/>
</svg>
